public/assets/img/arrow-down.svg

<svg width="20" height="20" viewBox="0 0 20 20" fill="none" xmlns="http://www.w3.org/2000/svg">
<path d="M9.99677 3.4896C10.4916 3.4896 10.8301 3.83466 10.8301 4.34898V11.9727L10.778 13.3854L12.2624 11.6992L13.7468 10.2279C13.8965 10.0716 14.0983 9.96747 14.3457 9.96747C14.8015 9.96747 15.14 10.306 15.14 10.7813C15.14 10.9961 15.0554 11.2044 14.8796 11.3802L10.6153 15.6446C10.459 15.8138 10.2246 15.905 9.99677 15.905C9.7689 15.905 9.54104 15.8138 9.37828 15.6446L5.12046 11.3802C4.94468 11.2044 4.86005 10.9961 4.86005 10.7813C4.86005 10.306 5.19859 9.96747 5.65432 9.96747C5.90171 9.96747 6.09703 10.0716 6.25328 10.2279L7.73114 11.6992L9.22203 13.3854L9.16343 11.9727V4.34898C9.16343 3.83466 9.50197 3.4896 9.99677 3.4896Z" fill="white"/>
</svg>

<svg width="20" height="20" fill="none" xmlns="http://www.w3.org/2000/svg"><path d="M9.997 3.49c.495 0 .833.345.833.859v7.624l-.052 1.412 1.484-1.686 1.485-1.471a.813.813 0 0 1 .599-.26c.456 0 .794.338.794.813a.836.836 0 0 1-.26.6l-4.265 4.264a.852.852 0 0 1-.618.26.862.862 0 0 1-.619-.26L5.12 11.38a.836.836 0 0 1-.26-.599c0-.475.339-.814.794-.814.248 0 .443.105.6.26L7.73 11.7l1.491 1.686-.059-1.412V4.349c0-.514.339-.86.834-.86Z" fill="#fff"/></svg>
